!!!!SEGMENT: pl-wn--sd-xvi-o-237_anonim--kancjonal-zamoyskich-grates-to-jest-dziekowanie-z-narodzenia-na-swiat-syna-bozego-nuz-teraz-wszyscy-dzieki-czynmy.krn
!!!cenid: 15xx:795
!!!COM: Anonim
!!!COM-rismID: pe30004985
!!!CDT:
!!!CNT:
!!!GTL: Kancjonał Zamoyskich
!!!OTL: Grates to jest Dziękowanie z Narodzenia na świat Syna Bożego/Nuż teraz wszyscy dzięki czyńmy
!!!PDT: 1558
!!!AGN:
!!!SMS-siglum: PL-Wn
!!!SMS-shelfmark: SD XVI.O.237
!!!SMS-shelfwork: G
!!!SMS-variant:
!!!SMS-altvar:
!!!NIFC-rismSourceID:
!!!NIFC-rismChildID:
!!!NIFC-islandoraID: none
!!!URL-pdf-islandora:
!!!URL-scan: https://polona.pl/item/grates-to-iest-dziekowanie-z-narodzenia-na-swiat-syna-bozego,MTE3MDQ2NA/3 @EN{Scan on Polona} @PL{Skany w portalu Polona}
!!!IIIF: https://polona.pl/iiif/item/MTE3MDQ2NA/manifest.json
!!!ONB-nifc: UWAGA: proszę zapisywać tylko teksty występujące bezpośrednio pod nutami
!!!AIN: 1 alto 1 bass 1 soprn 1 tenor
!!!key: G:mix
**kern	**text	**mod-text	**kern	**text	**mod-text	**kern	**text	**mod-text	**kern	**text	**mod-text
*part4	*part4	*part4	*part3	*part3	*part3	*part2	*part2	*part2	*part1	*part1	*part1
*staff4	*staff4	*staff4	*staff3	*staff3	*staff3	*staff2	*staff2	*staff2	*staff1	*staff1	*staff1
*I"BAS.	*	*	*I"TENOR	*	*	*I"ALT.	*	*	*I"CANTVS.	*	*
*mI"Basso	*	*	*mI"Tenore	*	*	*mI"Alto	*	*	*mI"Soprano	*	*
*I'B	*	*	*I'T	*	*	*I'A	*	*	*I'S	*	*
*Ibass	*	*	*Itenor	*	*	*Ialto	*	*	*Isoprn	*	*
*ICvox	*	*	*ICvox	*	*	*ICvox	*	*	*ICvox	*	*
*clefF4	*	*	*clefC4	*	*	*clefC3	*	*	*clefC1	*	*
*	*	*	*mclefGv2	*	*	*mclefG2	*	*	*mclefG2	*	*
*k[]	*	*	*k[]	*	*	*k[]	*	*	*k[]	*	*
*G:mix	*	*	*G:mix	*	*	*G:mix	*	*	*G:mix	*	*
*M2/1	*	*	*M2/1	*	*	*M2/1	*	*	*M2/1	*	*
*met(C|)	*	*	*met(C|)	*	*	*met(C|)	*	*	*met(C|)	*	*
*mmet(c|)	*	*	*mmet(c|)	*	*	*mmet(c|)	*	*	*mmet(c|)	*	*
=1-	=1-	=1-	=1-	=1-	=1-	=1-	=1-	=1-	=1-	=1-	=1-
*xywh-#6:810,397,1847,743	*	*	*xywh-#5:2750,282,2007,863	*	*	*xywh-#6:2745,315,2296,689	*	*	*xywh-#5:501,299,2107,814	*	*
1F	Nuſz	Nuż	1F	Nuſz	Nuż	1c	Nuſz	Nuż	1f	Nuſz	Nuż
2C/	te-	te-	1G	te-	te-	4c/	te-	te-	4e/	te-	te-
.	.	.	.	.	.	4A/	.	.	4f/	.	.
2E\	-ras	.	.	.	.	4B/	.	.	4g/	.	.
.	.	.	.	.	.	4c/	.	.	4e/	.	.
=2-	=2-	=2-	=2-	=2-	=2-	=2-	=2-	=2-	=2-	=2-	=2-
2D/	wſſy-	-raz	1A	-ras	-raz	2d\	-ras	-raz	2f/	-ras	-raz
2C/	-ſcy	.	.	.	.	2e\	wſſy-	.	1g	wſſy-	.
1D	etc.	wszy-	1A	wſſy-	wszy-	1d	-tcy.	wszy-	.	.	.
!	!	!	!	!	!	!	!	!	!LO:SIC:s=2f#i	!	!
.	.	.	.	.	.	.	.	.	2f/	-tcy	wszy-
=3-	=3-	=3-	=3-	=3-	=3-	=3-	=3-	=3-	=3-	=3-	=3-
2GG/	.	-scy	1G	-ſcy	-scy	1d	etc.	-scy	2g/	dźię-	-scy
2G\	.	.	.	.	.	.	.	.	2g/	-ki	dzię-
2D/	.	dzię-	1A	dzię-	dzię-	2r	.	.	2f/	czyń-	.
1F\	.	.	.	.	.	2c/	.	dzię-	1a\	-my	.
=4-	=4-	=4-	=4-	=4-	=4-	=4-	=4-	=4-	=4-	=4-	=4-
.	.	.	1c	-ki	-ki	1f	.	-ki	.	.	.
4E\	.	-ki	.	.	.	.	.	.	4g/	.	-ki
4D/	.	.	.	.	.	.	.	.	4f/	.	.
1C	.	czyń-	1c	czyń-	czyń-	1e	.	czyń-	1g	pá-	czyń-
=5-	=5-	=5-	=5-	=5-	=5-	=5-	=5-	=5-	=5-	=5-	=5-
1F	.	-my	1A	-my	-my	2c/	.	-my	1a	.	-my
.	.	.	.	.	.	2c/	.	Pa-	.	.	.
2F\	.	Pa-	1c	pa-	Pa-	2f\	.	.	2a\	.	Pa-
*	*	*	*	*	*	*	*	*	*xywh-#5:832,1091,1822,512	*	*
*	*	*	*	*	*	*	*	*	*custos:a	*	*
!	!	!	!	!	!	!	!	!	!LO:LB:g=original	!	!
2F\	.	-nu	.	.	.	2f\	.	-nu	2a\	-nu	-nu
*custos:F	*	*	*custos:c	*	*	*	*	*	*	*	*
=6-	=6-	=6-	=6-	=6-	=6-	=6-	=6-	=6-	=6-	=6-	=6-
*xywh-#6:795,1117,1875,447	*	*	*xywh-#5:2741,1112,1941,531	*	*	*	*	*	*	*	*
!LO:LB:g=original	!	!	!LO:LB:g=original	!	!	!	!	!	!	!	!
1F	.	Bo-	1c	-nu	-nu	1f	.	Bo-	1a	Bo-	Bo-
*	*	*	*	*	*	*xywh-#6:2739,982,1868,410	*	*	*	*	*
*	*	*	*	*	*	*custos:e	*	*	*	*	*
!	!	!	!	!	!	!LO:LB:g=original	!	!	!	!	!
1C	.	.	1c	Bo-	Bo-	1e	.	-gu	4g/	-gu	.
.	.	.	.	.	.	.	.	.	4f/	.	.
.	.	.	.	.	.	.	.	.	4e/	.	.
.	.	.	.	.	.	.	.	.	4d/	.	.
=7-	=7-	=7-	=7-	=7-	=7-	=7-	=7-	=7-	=7-	=7-	=7-
1C	.	-gu	1c	-gu/	-gu	1g	.	że	2c/	że	-gu
.	.	.	.	.	.	.	.	.	1cc	nam	że
1G	.	że	1d	że	że	1g	.	nam	.	.	.
.	.	.	.	.	.	.	.	.	2b\	przes	.
=8-	=8-	=8-	=8-	=8-	=8-	=8-	=8-	=8-	=8-	=8-	=8-
!	!	!	!	!	!	!LO:N:vis=0	!	!	!	!	!
2C/	.	nam	1c	nam	nam	1e	.	przez	1cc	ſwe	nam
1c	.	.	.	.	.	.	.	.	.	.	.
.	.	.	1G	przes	przez	2r	.	.	1dd	ná-	przez
2B\	.	przez	.	.	.	1g\	.	swe	.	.	.
=9-	=9-	=9-	=9-	=9-	=9-	=9-	=9-	=9-	=9-	=9-	=9-
2c\	.	swe	1c	ſwe	swe	.	.	.	2cc\	-ro-	swe
!	!	!	!	!	!	!LO:SIC:s=2f#i	!	!	!	!	!
2A\	.	.	.	.	.	2f\	.	na-	2cc\	-dże.	na-
1G	.	.	1B	ná-	na-	1g	.	-ro-	2.dd\	.	-ro-
!	!	!	!	!	!	!	!	!	!LO:SIC:s=8ccL	!	!
.	.	.	.	.	.	.	.	.	8cc\	.	.
!	!	!	!	!	!	!	!	!	!LO:SIC:s=8bJ	!	!
.	.	.	.	.	.	.	.	.	8b\	.	.
=10-	=10-	=10-	=10-	=10-	=10-	=10-	=10-	=10-	=10-	=10-	=10-
2C/	.	na-	1c	-ro-	-ro-	1e	.	-dze-	2a\	.	.
2C/	.	-ro-	.	.	.	.	.	.	1g	.	.
1D	.	-dze-	1A	-dze-	-dze-	1d	.	-nie	.	.	.
!	!	!	!	!	!	!	!	!	!LO:SIC:s=2f#i	!	!
.	.	.	.	.	.	.	.	.	2f/	.	-dze-
*	*	*	*	*	*	*	*	*	*custos:g	*	*
=11-	=11-	=11-	=11-	=11-	=11-	=11-	=11-	=11-	=11-	=11-	=11-
*	*	*	*	*	*	*	*	*	*xywh-#5:832,1563,1822,512	*	*
!	!	!	!	!	!	!	!	!	!LO:LB:g=original	!	!
2GG/	.	-nie	1G	-nie/	-nie	2r	.	.	2g/	u-	-nie
2G\	.	u-	.	.	.	2d\	.	u-	2b\	-czy-	u-
2F\	.	-czy-	1c	u-	u-	2f\	.	-czy-	2a\	-nić	-czy-
2A\	.	.	.	.	.	2e\	.	.	2cc\	ra-	.
*	*	*	*custos:B	*	*	*	*	*	*	*	*
=12-	=12-	=12-	=12-	=12-	=12-	=12-	=12-	=12-	=12-	=12-	=12-
*	*	*	*xywh-#5:2741,1606,1851,560	*	*	*	*	*	*	*	*
!	!	!	!LO:LB:g=original	!	!	!	!	!	!	!	!
1G	.	-nić	1B	-czy-	-czy-	1g	.	.	1.dd	-cził	-nić
*xywh-#6:796,1554,1843,431	*	*	*	*	*	*	*	*	*	*	*
*custos:D	*	*	*	*	*	*	*	*	*	*	*
!LO:LB:g=original	!	!	!	!	!	!	!	!	!	!	!
2.D/	.	ra-	1d	-nić	-nić	1f	.	-nić	.	.	.
.	.	.	.	.	.	.	.	.	4cc\	.	.
4E\	.	.	.	.	.	.	.	.	4b\	.	.
=13-	=13-	=13-	=13-	=13-	=13-	=13-	=13-	=13-	=13-	=13-	=13-
1F	.	-czył	1c	ra-	ra-	1f	.	ra	4a\	.	.
.	.	.	.	.	.	.	.	.	4g/	.	.
.	.	.	.	.	.	.	.	.	1cc	z mo-	ra-
2r	.	.	1G	-czył	-czył	2d\	.	-czył	.	.	.
2G\	.	z_mo-	.	.	.	2g\	.	z_mo-	2b\	-ci	.
=14-	=14-	=14-	=14-	=14-	=14-	=14-	=14-	=14-	=14-	=14-	=14-
2A\	.	.	1c	z_mo-	z_mo-	2e\	.	-cy	2cc\	dy-	-czył
*	*	*	*	*	*	*xywh-#6:2739,1353,1885,438	*	*	*	*	*
*	*	*	*	*	*	*custos:f	*	*	*	*	*
!	!	!	!	!	!	!LO:LB:g=original	!	!	!	!	!
2F\	.	-cy	.	.	.	2f\	.	dy-	2a\	-ia-	z_mo-
1G	.	dy-	1B	-cy	-cy	1d	.	-ja-	2g/	-bel-	.
.	.	.	.	.	.	.	.	.	2b\	-ſkiey	-cy
=15-	=15-	=15-	=15-	=15-	=15-	=15-	=15-	=15-	=15-	=15-	=15-
1C	.	-ja-	1c	dy-	di-	1e	.	-bel-	2a\	wy-	dy-
.	.	.	.	.	.	.	.	.	1g	-bá-	-ja-
1D	.	-bel-	1A	-ia-	-a-	0d	.	-skiej	.	.	.
!	!	!	!	!	!	!	!	!	!LO:SIC:s=2f#i	!	!
!	!	!	!	!	!	!	!	!	!LO:TX:t=P:problem:brak nut, innym atramentem dopisane 2f/ i 2g\	!	!
.	.	.	.	.	.	.	.	.	2f/yy	.	-bel-
=16-	=16-	=16-	=16-	=16-	=16-	=16-	=16-	=16-	=16-	=16-	=16-
1GG	.	-skiej	1G	-bel-	-bel-	.	.	.	2g\yy	.	-skiej
.	.	.	.	.	.	.	.	.	2.dd\	.	wy-
1D	.	wy-	1F	-ſkiey	-skiej	2r	.	.	.	.	.
.	.	.	.	.	.	.	.	.	4cc\	.	.
*	*	*	*	*	*	*	*	*	*xywh-#5:820,2053,1811,512	*	*
*	*	*	*	*	*	*	*	*	*custos:cc	*	*
!	!	!	!	!	!	!	!	!	!LO:TX:t=P:problem:błędnie custos cc zamiast custos a	!	!
!	!	!	!	!	!	!	!	!	!LO:LB:g=original	!	!
!	!	!	!	!	!	!	!	!	!LO:SIC:s=4b	!	!
.	.	.	.	.	.	1d\	.	wy-	4a\	-wie-	.
.	.	.	.	.	.	.	.	.	4a\	-nie.	.
=17-	=17-	=17-	=17-	=17-	=17-	=17-	=17-	=17-	=17-	=17-	=17-
1E	.	.	1G	wy-	wy-	.	.	.	2g/	.	.
.	.	.	.	.	.	2c/	.	.	2e/	.	.
2D/	.	-ba-	1A	-bá-	-ba-	2d\	.	-ba-	2f/	.	-ba-
2C/	.	.	.	.	.	2e\	.	.	1g\	.	.
*	*	*	*custos:A	*	*	*	*	*	*	*	*
=18-	=18-	=18-	=18-	=18-	=18-	=18-	=18-	=18-	=18-	=18-	=18-
*	*	*	*xywh-#5:2731,2127,1908,579	*	*	*	*	*	*	*	*
!	!	!	!LO:LB:g=original	!	!	!	!	!	!	!	!
1D	.	-wie-	1A	-wie-	-wie-	1d	.	-wie-	.	.	.
!	!	!	!	!	!	!	!	!	!LO:SIC:s=2f#i	!	!
.	.	.	.	.	.	.	.	.	2f/	Je-	-wie-
!LO:SIC:s=1GG;	!	!	!	!	!	!	!	!	!	!	!
1GGl	.	-nie.	1G;<l/	-nie.	-nie.	1d;<l/	.	-nie.	1g;</l	-muſz	-nie.
=19-	=19-	=19-	=19-	=19-	=19-	=19-	=19-	=19-	=19-	=19-	=19-
*xywh-#6:796,1973,1835,427	*	*	*	*	*	*	*	*	*	*	*
!LO:LB:g=original	!	!	!	!	!	!	!	!	!	!	!
1D	.	Je-	1D	Je-	Je-	1d	.	Je-	1a	przy-	Je-
2F\	.	-muż	1D	-muſz	-muż	2A/	.	-muż	2f/	-ſlu-	-muż
2F\	.	przy-	.	.	.	1d\	.	przy-	2.a\	-ſſa	przy-
=20-	=20-	=20-	=20-	=20-	=20-	=20-	=20-	=20-	=20-	=20-	=20-
1E	.	-słu-	1G	przy-	przy-	.	.	.	.	.	.
.	.	.	.	.	.	.	.	.	4g/	ſpie-	.
!	!	!	!	!	!	!LO:SIC:s=2c#i	!	!	!	!	!
.	.	.	.	.	.	2c/	.	-słu-	1g	-wáć	.
1D	.	-sza	1A	-ſlu-	-słu-	0d	.	-sza	.	.	.
!	!	!	!	!	!	!	!	!	!LO:SIC:s=2f#i	!	!
.	.	.	.	.	.	.	.	.	2f/	.	-słu-
=21-	=21-	=21-	=21-	=21-	=21-	=21-	=21-	=21-	=21-	=21-	=21-
2r	.	.	1G	-ſſe	-sza	.	.	.	1g	.	-sza
1G	.	śpie-	.	.	.	.	.	.	.	.	.
.	.	.	1D	ſpiew.	śpie-	2r	.	.	1r	.	.
2F\	.	.	.	.	.	1d\	.	śpie-	.	.	.
=22-	=22-	=22-	=22-	=22-	=22-	=22-	=22-	=22-	=22-	=22-	=22-
1E	.	-wać	1G	z_á-	-wać	.	.	.	2r	.	.
!	!	!	!	!	!	!LO:SIC:s=2c#i	!	!	!	!	!
.	.	.	.	.	.	2c/	.	.	1g	.	śpie-
1D	.	z_a-	1A	-nio-	z_a-	1d	.	-wać	.	.	.
.	.	.	.	.	.	.	.	.	2f/	.	-wać
*	*	*	*	*	*	*custos:G	*	*	*custos:e	*	*
=23-	=23-	=23-	=23-	=23-	=23-	=23-	=23-	=23-	=23-	=23-	=23-
*	*	*	*	*	*	*xywh-#6:2728,1752,1914,467	*	*	*xywh-#5:811,2518,1828,518	*	*
!	!	!	!	!	!	!LO:LB:g=original	!	!	!LO:LB:g=original	!	!
1C	.	-nio-	1c	-ły	-nio-	2G/	.	z_a-	2e/	z A-	z_a-
.	.	.	.	.	.	2G/	.	-nio-	2e/	-nio-	-nio-
1C	.	-ły	1G	w_rá-	-ły	1c	.	-ły	2c/	-ły	-ły
.	.	.	.	.	.	.	.	.	2.e/	w rá-	w_ra-
=24-	=24-	=24-	=24-	=24-	=24-	=24-	=24-	=24-	=24-	=24-	=24-
1D	.	w_ra-	1F	-do-	w_ra-	1A	.	w_ra-	.	.	.
.	.	.	.	.	.	.	.	.	4d/	.	.
.	.	.	.	.	.	.	.	.	1d	-do-	.
*	*	*	*xywh-#5:2731,2655,1922,655	*	*	*	*	*	*	*	*
*	*	*	*custos:E	*	*	*	*	*	*	*	*
!	!	!	!LO:LB:g=original	!	!	!	!	!	!	!	!
1AA	.	-do-	1E	-ſci.	-do-	2A/	.	-do-	.	.	.
!	!	!	!	!	!	!	!	!	!LO:SIC:s=2c#i	!	!
.	.	.	.	.	.	2e\	.	.	2c/	-ſci/	-do-
=25-	=25-	=25-	=25-	=25-	=25-	=25-	=25-	=25-	=25-	=25-	=25-
1D	.	-ści	1F	chw(a-	.	2d\	.	-ści	2d/	Chwa-	-ści
.	.	.	.	.	.	2.f\	.	chwa-	2a\	-łá	chwa-
2r	.	.	1D	-ła)	-ści	.	.	.	2f/	zá-	-ła
.	.	.	.	.	.	4e\	.	.	.	.	.
2D/	.	chwa-	.	.	.	1d\	.	-ła	2.a\	-wſſe	.
=26-	=26-	=26-	=26-	=26-	=26-	=26-	=26-	=26-	=26-	=26-	=26-
1E	.	-ła	1G	za-	chwa-	.	.	.	.	.	.
.	.	.	.	.	.	.	.	.	4g/	.	.
!	!	!	!	!	!	!LO:SIC:s=2c#i	!	!	!	!	!
.	.	.	.	.	.	2c/	.	za-	1g	.	.
1D	.	za-	1A	-wſſe	-ła	1d	.	-wsze	.	.	.
!	!	!	!	!	!	!	!	!	!LO:SIC:s=2f#i	!	!
.	.	.	.	.	.	.	.	.	2f/	.	za-
*custos:G	*	*	*	*	*	*	*	*	*	*	*
=27-	=27-	=27-	=27-	=27-	=27-	=27-	=27-	=27-	=27-	=27-	=27-
*xywh-#6:328,2409,2318,1380	*	*	*	*	*	*	*	*	*	*	*
!LO:LB:g=original	!	!	!	!	!	!	!	!	!	!	!
2G\	.	-wsze	1G	na	za-	2d\	.	na	1g	.	-wsze
1E	.	na	.	.	.	1e	.	wy-	.	.	.
.	.	.	1c	wy-	-wsze	.	.	.	2g/	.	na
1F\	.	wy-	.	.	.	1c\	.	-so-	2.a\	.	wy-
=28-	=28-	=28-	=28-	=28-	=28-	=28-	=28-	=28-	=28-	=28-	=28-
.	.	.	1A	-(ſo-	na	.	.	.	.	.	.
.	.	.	.	.	.	.	.	.	4g/	.	.
*	*	*	*	*	*	*	*	*	*xywh-#5:794,3003,1845,700	*	*
*	*	*	*	*	*	*	*	*	*custos:f	*	*
!	!	!	!	!	!	!	!	!	!LO:LB:g=original	!	!
2D/	.	-so-	.	.	.	2d\	.	-ko-	4f/	ná	.
.	.	.	.	.	.	.	.	.	4e/	.	.
1G	.	-ko-	1B	-ko-	wy-	1d	.	-ści	2d/	wy-	-so-
.	.	.	.	.	.	.	.	.	1g\	-ſo-	.
=29-	=29-	=29-	=29-	=29-	=29-	=29-	=29-	=29-	=29-	=29-	=29-
1D	.	-ści	1A	-ſci.)	-so-	2r	.	.	.	.	.
!	!	!	!	!	!	!	!	!	!LO:SIC:s=2f#i	!	!
.	.	.	.	.	.	2d\	.	na	2f/	-ko-	-ko-
*	*	*	*	*	*	*xywh-#6:2769,2200,2244,1441	*	*	*	*	*
*	*	*	*	*	*	*custos:B	*	*	*	*	*
!	!	!	!	!	!	!LO:LB:g=original	!	!	!	!	!
2r	.	.	0G	.	-ko-	2B/	.	wy-	[1g/l	-ſci.	-ści.
2G\	.	na	.	.	.	1G/	.	.	.	.	.
=30-	=30-	=30-	=30-	=30-	=30-	=30-	=30-	=30-	=30-	=30-	=30-
2E\	.	wy-	.	.	.	.	.	.	0g_	.	.
2C/	.	.	.	.	.	1c	.	-so-	.	.	.
1G	.	-so-	[1Gl	.	-ści.	.	.	.	.	.	.
.	.	.	.	.	.	2B/	.	.	.	.	.
=31-	=31-	=31-	=31-	=31-	=31-	=31-	=31-	=31-	=31-	=31-	=31-
!	!	!	!LO:SIC:s=0G;]	!	!	!	!	!	!LO:SIC:s=0g;]	!	!
4C/	.	-ko-	0G]	.	.	1e	.	-ko-	0g]	.	.
4D/	.	.	.	.	.	.	.	.	.	.	.
4E\	.	.	.	.	.	.	.	.	.	.	.
4F\	.	.	.	.	.	.	.	.	.	.	.
!LO:MO:mod=!LO&colon;N&colon;vis=0	!	!	!	!	!	!LO:MO:mod=!LO&colon;N&colon;vis=0	!	!	!	!	!
!null	!	!	!	!	!	!null	!	!	!	!	!
!LO:SIC:s=1G;	!	!	!	!	!	!LO:SIC:s=1d;	!	!	!	!	!
1Gl	.	-ści.	.	.	.	1dl	.	-ści.	.	.	.
==	==	==	==	==	==	==	==	==	==	==	==
*-	*-	*-	*-	*-	*-	*-	*-	*-	*-	*-	*-
!!!system-decoration: [(*)]
!!LO:MO:ori
!!!RDF**kern: < = below
!!!RDF**kern: l = terminal long
!!LO:MO:mod
!! !!!RDF**kern: i = editorial accidental
!!LO:MO:end
!!!filter-modern: shed -e "s/TX(.*):t=P:/tx$1:t=P:/LG" | shed -e "s/^custos:/Xcustos:/I" | sic -sq | modori -m | autostem -r | tie -s | humtr -p | shed -e "s/-//B" | shed -e "s/yy//"
!!!ENC: Berenika Jozajtis
!!!END: 2022-04-25
!!!ENC: Katarzyna Serwa
!!!END: 2022-05-04
!!!ENC-modern: Andrzej Kubiczek
!!!END-modern: 2022-07-22
!!!ENC-iiif: Emilia Ziętek
!!!END-iiif: 2022-09-02https://polona.pl/iiif/item/MTE3MDQ2NA/manifest.json
!!!YEC: Copyright 2022 Narodowy Instytut Fryderyka Chopina (https://polishscores.org)
!!!YEM: License CC-BY-4.0 (https://creativecommons.org/licenses/by/4.0)
